X:820
T:Sheehan's Reel
M:C|
L:1/8
K:G
D|G2 BG DGBG|ABcA BGGB|AGAB cBAG|(3EFG AG FDEF|
G2 BG DGBd|cBAB cdef|gedB c2 Bc|1 dBcA BGGD :|2dBcA BGGd||
g2 bg dgbg|gbag fdde|f2 af dfaf|gbag fdef|
g2 bg dgbg|gbag fdef|gedB c2 Bc|1 dBcA BGGd :|2dBcA BGGD||
